Adwaita++-Light/panel/16/btsync-gui-0.svg

<svg height="16" width="16" xmlns="http://www.w3.org/2000/svg">
  <path d="m4.5 1.9378222c-3.3478377 1.932875-4.49505283 6.2143401-2.5621778 9.5621778 1.932875 3.347838 6.2143401 4.495053 9.5621778 2.562178 3.347838-1.932875 4.495053-6.2143403 2.562178-9.562178s-6.2143403-4.49505283-9.562178-2.5621778zm1 1.7320508c2.094918-1.2095015 4.70155-.7310166 6.243863 1.0139061l.952289-.5498045-.23205 3.5980762-3.2320512-1.5980762.7070283-.408203c-.9391782-.8004565-2.3093398-.9761031-3.4390791-.3238478-.6172895.3578434-1.086828.9239833-1.3243385 1.5968034l-2.0676666.0007277c.2847494-1.4007519 1.1553941-2.612657 2.3920051-3.3295819zm-1.9641016 4.5980762 3.2320508 1.5980762-.7070285.4082036c.9391782.800456 2.30934.976103 3.4390793.323847.617289-.357843 1.086828-.9239831 1.324339-1.5968031l2.067666-.0007277c-.284749 1.4007518-1.155409 2.6126308-2.392005 3.3295818-2.094918 1.209502-4.7015496.731016-6.2438627-1.013906l-.9522897.549804z" fill="#444"/>
</svg>

<svg xmlns="http://www.w3.org/2000/svg" width="16" height="16" version="1.1">
 <defs>
  <style id="current-color-scheme" type="text/css">
   .ColorScheme-Text { color:#444444; } .ColorScheme-Highlight { color:#4285f4; }
  </style>
 </defs>
 <path style="fill:currentColor" class="ColorScheme-Text" d="M 4.5,1.9378222 C 1.1521623,3.8706972 0.00494717,8.1521623 1.9378222,11.5 3.8706972,14.847838 8.1521623,15.995053 11.5,14.062178 14.847838,12.129303 15.995053,7.8478377 14.062178,4.5 12.129303,1.1521623 7.8478377,0.00494717 4.5,1.9378222 Z m 1,1.7320508 C 7.594918,2.4603715 10.20155,2.9388564 11.743863,4.6837791 L 12.696152,4.1339746 12.464102,7.7320508 9.2320508,6.1339746 9.9390791,5.7257716 C 8.9999009,4.9253151 7.6297393,4.7496685 6.5,5.4019238 5.8827105,5.7597672 5.413172,6.3259071 5.1756615,6.9987272 L 3.1079949,6.9994549 C 3.3927443,5.598703 4.263389,4.3867979 5.5,3.669873 Z M 3.5358984,8.2679492 6.7679492,9.8660254 6.0609207,10.274229 c 0.9391782,0.800456 2.30934,0.976103 3.4390793,0.323847 0.617289,-0.357843 1.086828,-0.9239831 1.324339,-1.5968031 l 2.067666,-7.277e-4 C 12.607256,10.401297 11.736596,11.613176 10.5,12.330127 8.405082,13.539629 5.7984504,13.061143 4.2561373,11.316221 L 3.3038476,11.866025 3.5358984,8.2679492 Z"/>
</svg>
